app/dist/common/images/china-science-publishing-and-media-ltd.svg

<svg height="18" viewBox="0 0 18 18" width="18" xmlns="http://www.w3.org/2000/svg"><path d="m0 0h18v18h-18z" fill="#f0f3fa"/><path d="m4 5h1v2.5h-1zm3 0h1v2.5h-1z" fill="#253886"/><path d="m5.5 5h1v2.5h-1zm3 0h1v2.5h-1zm-4 3h5.5v1h-5.12c-.09 0-.38.1-.38.5s.3.5.38.5h5.12v1.5c0-.5-.41-.5-.5-.5h-5c-.45 0-1.5-.03-1.5-1.5 0-1 1.05-1.5 1.5-1.5zm-1.5 5v-1h6.5c.22 0 .5 0 .5-.5v1.5z" fill="#d93634"/><g fill="#253886"><path d="m15 13h-3l3-3z"/><path d="m11 5h-1v8h1v-3h2.13c.67 0 1.87-.63 1.87-2.5 0-2-1.24-2.5-1.87-2.5zm0 1v3h2c.5 0 1-.5 1-1.5s-.5-1.5-1.13-1.5z" fill-rule="evenodd"/></g></svg>

<!-- by TradingView --><svg width="18" height="18" viewBox="0 0 18 18" xmlns="http://www.w3.org/2000/svg"><path fill="#F0F3FA" d="M0 0h18v18H0z"/><path d="M4 5h1v2.5H4V5ZM7 5h1v2.5H7V5Z" fill="#253886"/><path d="M5.5 5h1v2.5h-1V5ZM8.5 5h1v2.5h-1V5ZM4.5 8H10v1H4.88c-.09 0-.38.1-.38.5s.3.5.38.5H10v1.5c0-.5-.41-.5-.5-.5h-5C4.05 11 3 10.97 3 9.5 3 8.5 4.05 8 4.5 8ZM3 13v-1h6.5c.22 0 .5 0 .5-.5V13H3Z" fill="#D93634"/><path d="M15 13h-3l3-3v3Z" fill="#253886"/><path fill-rule="evenodd" d="M11 5h-1v8h1v-3h2.13C13.8 10 15 9.37 15 7.5c0-2-1.24-2.5-1.87-2.5H11Zm0 1v3h2c.5 0 1-.5 1-1.5S13.5 6 12.87 6H11Z" fill="#253886"/></svg>
